img/Group.svg

<svg width="706" height="742" viewBox="0 0 706 742" fill="none" xmlns="http://www.w3.org/2000/svg">
<path d="M196.626 215.862L397.103 251.216L339.045 578.341C337.545 586.74 343.149 594.76 351.543 596.247C352.456 596.406 353.369 596.488 354.266 596.488C361.61 596.488 368.125 591.226 369.454 583.736L427.528 256.578L636.676 293.454C637.555 293.609 638.451 293.686 639.348 293.686C642.502 293.686 645.588 292.725 648.207 290.894C651.568 288.545 653.844 284.959 654.568 280.921C677.426 151.237 590.529 27.119 460.848 4.21897C460.831 4.21497 460.815 4.20997 460.797 4.20597C460.469 4.14497 460.108 4.12897 459.779 4.06797C446.299 1.75697 432.613 0.542969 419.063 0.542969C303.086 0.542969 204.261 83.569 184.093 197.969C183.386 202.003 184.3 206.153 186.644 209.51C189.007 212.862 192.592 215.147 196.626 215.862ZM626.264 260.25L561.864 248.895C571.586 178.982 562.518 115.116 539.471 69.96C598.906 112.24 633.969 184.188 626.264 260.25ZM466.364 37.742C516.371 57.148 544.555 145.462 531.437 243.529L432.922 226.162L466.364 37.742ZM435.543 34.554L402.498 220.796L354.904 212.405L312.585 204.941C332.581 113.551 383.863 42.647 435.543 34.554ZM365.729 38.397C327.926 73.209 296.95 130.956 282.177 199.581L217.758 188.221C236.497 114.106 293.864 57.441 365.729 38.397Z" fill="#FBD42C"/>
<path d="M705.006 723.618C704.955 710.965 704.766 649.594 704.886 604.008C704.886 598.078 701.508 592.666 696.181 590.076C690.854 587.481 684.493 588.183 679.857 591.859C629.936 631.36 545.833 637.259 500.151 637.259C447.042 637.259 401.068 629.632 379.055 622.069C291.814 592.096 218.777 569.166 139.517 569.166C97.0424 569.166 55.3094 575.729 11.9304 589.223C5.49235 591.227 1.08735 597.187 1.07835 603.94L0.82035 725.985C0.81135 730.083 2.44035 734.022 5.33635 736.93C8.23235 739.826 12.1623 741.459 16.2653 741.459H689.561C689.631 741.459 689.682 741.459 689.734 741.459C698.267 741.459 705.179 734.543 705.179 726.014C705.179 725.199 705.127 724.398 705.006 723.618ZM31.7454 710.568L31.9343 615.498C68.4263 605.115 103.73 600.057 139.516 600.057C214.156 600.057 281.711 621.289 369.021 651.287C398.843 661.531 450.316 668.15 500.15 668.15C543.089 668.15 617.576 663.099 673.961 632.494C673.943 662.078 674.013 692.727 674.065 710.568H31.7454V710.568Z" fill="#FBD42C"/>
<path d="M16.7563 426.505H219.035C226.981 426.505 233.652 420.455 234.411 412.534C234.756 408.806 234.963 405.04 234.963 401.225C234.963 336.669 182.456 284.15 117.9 284.15C53.3433 284.15 0.820312 336.67 0.820312 401.225C0.820312 405.026 1.02632 408.78 1.37132 412.491C2.11231 420.434 8.78431 426.505 16.7563 426.505ZM117.9 315.04C163.528 315.04 201.004 350.697 203.9 395.615H31.8923C34.7963 350.697 72.2543 315.04 117.9 315.04Z" fill="#FBD42C"/>
<path d="M426.407 439.887C417.875 439.887 410.963 446.8 410.963 455.332C410.963 463.86 417.875 470.777 426.407 470.777H587.669C596.185 470.777 603.114 463.86 603.114 455.332C603.114 446.8 596.184 439.887 587.669 439.887H426.407Z" fill="#FBD42C"/>
<path d="M16.2653 470.775C16.3173 470.775 16.3863 470.775 16.4383 470.775C117.694 469.625 222.397 469.582 327.651 470.646C327.704 470.646 327.755 470.646 327.807 470.646C336.252 470.646 343.165 463.836 343.251 455.356C343.338 446.828 336.477 439.841 327.961 439.755C222.482 438.691 117.555 438.734 16.0933 439.884C7.56032 439.984 0.725312 446.974 0.821312 455.506C0.923312 463.976 7.81831 470.775 16.2653 470.775Z" fill="#FBD42C"/>
<path d="M16.2663 521.593H316.878C325.411 521.593 332.323 514.676 332.323 506.148C332.323 497.62 325.411 490.703 316.878 490.703H16.2663C7.73427 490.703 0.822266 497.62 0.822266 506.148C0.822266 514.676 7.73327 521.593 16.2663 521.593Z" fill="#FBD42C"/>
</svg>

<svg width="706" height="742" fill="none" xmlns="http://www.w3.org/2000/svg"><path d="m196.626 215.862 200.477 35.354-58.058 327.125c-1.5 8.399 4.104 16.419 12.498 17.906.913.159 1.826.241 2.723.241 7.344 0 13.859-5.262 15.188-12.752l58.074-327.158 209.148 36.876a15.437 15.437 0 0 0 11.531-2.56 15.481 15.481 0 0 0 6.361-9.973c22.858-129.684-64.039-253.802-193.72-276.702l-.051-.013c-.328-.061-.689-.077-1.018-.138-13.48-2.311-27.166-3.525-40.716-3.525-115.977 0-214.802 83.026-234.97 197.426a15.487 15.487 0 0 0 2.551 11.541 15.532 15.532 0 0 0 9.982 6.352Zm429.638 44.388-64.4-11.355c9.722-69.913.654-133.779-22.393-178.935 59.435 42.28 94.498 114.228 86.793 190.29Zm-159.9-222.508c50.007 19.406 78.191 107.72 65.073 205.787l-98.515-17.367 33.442-188.42Zm-30.821-3.188-33.045 186.242-47.594-8.391-42.319-7.464c19.996-91.39 71.278-162.294 122.958-170.387Zm-69.814 3.843c-37.803 34.812-68.779 92.559-83.552 161.184l-64.419-11.36c18.739-74.115 76.106-130.78 147.971-149.824Z" fill="#FBD42C"/><path d="M705.006 723.618c-.051-12.653-.24-74.024-.12-119.61 0-5.93-3.378-11.342-8.705-13.932a15.43 15.43 0 0 0-16.324 1.783c-49.921 39.501-134.024 45.4-179.706 45.4-53.109 0-99.083-7.627-121.096-15.19-87.241-29.973-160.278-52.903-239.538-52.903-42.475 0-84.208 6.563-127.587 20.057A15.443 15.443 0 0 0 1.078 603.94L.82 725.985a15.474 15.474 0 0 0 4.516 10.945 15.457 15.457 0 0 0 10.93 4.529h673.468c8.533 0 15.445-6.916 15.445-15.445 0-.815-.052-1.616-.173-2.396Zm-673.26-13.05.188-95.07c36.492-10.383 71.796-15.441 107.582-15.441 74.64 0 142.195 21.232 229.505 51.23 29.822 10.244 81.295 16.863 131.129 16.863 42.939 0 117.426-5.051 173.811-35.656-.018 29.584.052 60.233.104 78.074H31.745ZM16.756 426.505h202.279c7.946 0 14.617-6.05 15.376-13.971.345-3.728.552-7.494.552-11.309 0-64.556-52.507-117.075-117.063-117.075C53.343 284.15.82 336.67.82 401.225c0 3.801.206 7.555.551 11.266.741 7.943 7.413 14.014 15.385 14.014ZM117.9 315.04c45.628 0 83.104 35.657 86 80.575H31.892c2.904-44.918 40.362-80.575 86.008-80.575ZM426.407 439.887c-8.532 0-15.444 6.913-15.444 15.445 0 8.528 6.912 15.445 15.444 15.445h161.262c8.516 0 15.445-6.917 15.445-15.445 0-8.532-6.93-15.445-15.445-15.445H426.407ZM16.265 470.775h.173c101.256-1.15 205.959-1.193 311.213-.129h.156c8.445 0 15.358-6.81 15.444-15.29.087-8.528-6.774-15.515-15.29-15.601-105.479-1.064-210.406-1.021-311.868.129-8.533.1-15.368 7.09-15.272 15.622.102 8.47 6.997 15.269 15.444 15.269ZM16.266 521.593h300.612c8.533 0 15.445-6.917 15.445-15.445s-6.912-15.445-15.445-15.445H16.266c-8.532 0-15.444 6.917-15.444 15.445s6.911 15.445 15.444 15.445Z" fill="#FBD42C"/></svg>
